src/images/std-icons/std-points.svg

<svg xmlns="http://www.w3.org/2000/svg" width="512" height="512" viewBox="0 0 512 512">
  <title>points</title>
  <path fill="#000" fill-rule="nonzero" d="M282.40896 215.898453C286.691895 212.624116 289.107474 207.465747 288.880213 202.07936 289.552241 197.130449 286.931245 192.318752 282.40896 190.199253 277.569067 187.77344 274.34496 188.34112 266.247467 189.73952L251.698133 192.278187 251.698133 224.7744 266.247467 222.263893C272.174653 221.915539 277.836212 219.685651 282.40896 215.898453zM275.953067 269.354667L251.697067 273.543467 251.697067 309.285547 275.953067 305.08288C281.956728 304.529577 287.623074 302.059353 292.11456 298.037333 296.43449 294.372789 298.819572 288.918328 298.576853 283.258667 299.247824 278.057728 296.689807 272.971164 292.11456 270.408533 287.055895 268.020742 281.278984 267.644038 275.953067 269.354667L275.953067 269.354667z"/>
  <path fill="#000" fill-rule="nonzero" d="M256,42.6666667 C138.179253,42.6666667 42.6666667,138.179253 42.6666667,256 C42.6666667,373.820747 138.179253,469.333333 256,469.333333 C373.820747,469.333333 469.333333,373.820747 469.333333,256 C469.333333,199.420482 446.857207,145.158314 406.849447,105.150553 C366.841686,65.1427926 312.579518,42.6666667 256,42.6666667 Z M347.035093,332.34368 C330.016722,345.309839 310.024907,353.812374 288.880427,357.076907 L157.866667,379.754667 L157.866667,326.76032 L178.96832,323.233067 L178.96832,204.934827 L157.866667,208.467413 L157.866667,155.480533 L271.095893,135.906347 C289.686837,131.879564 308.859508,131.303526 327.658667,134.206933 C347.747385,138.460347 361.741734,156.716018 360.631467,177.220053 C360.228434,199.747102 348.418391,220.529485 329.271467,232.404907 C340.974197,232.629511 352.094535,237.55269 360.127875,246.065609 C368.161215,254.578528 372.432044,265.965347 371.978453,277.66144 C372.80972,298.813766 363.553632,319.105486 347.035093,332.34368 Z"/>
</svg>

<svg xmlns="http://www.w3.org/2000/svg" viewBox="0 0 512 512">
  <title>
    points
  </title>
  <path d="M282.4 215.9a16.52 16.52 0 0 0 6.48-13.82 11.42 11.42 0 0 0-6.47-11.88c-4.84-2.43-8.07-1.86-16.16-.46l-14.55 2.54v32.5l14.55-2.52a27.9 27.9 0 0 0 16.16-6.36zm-6.45 53.45l-24.25 4.2v35.74l24.25-4.2a28.1 28.1 0 0 0 16.16-7.05 18.35 18.35 0 0 0 6.47-14.78 12.84 12.84 0 0 0-6.47-12.85 22.06 22.06 0 0 0-16.16-1.06z"/>
  <path d="M256 42.67c-117.82 0-213.33 95.5-213.33 213.33 0 117.82 95.5 213.33 213.33 213.33 117.82 0 213.33-95.5 213.33-213.33A213.33 213.33 0 0 0 256 42.67zm91.04 289.67a128.25 128.25 0 0 1-58.16 24.74l-131.01 22.67v-52.99l21.1-3.53v-118.3l-21.1 3.54v-52.99l113.23-19.57c18.59-4.03 37.76-4.6 56.56-1.7a41.66 41.66 0 0 1 32.97 43.01 66.33 66.33 0 0 1-31.36 55.18 43.58 43.58 0 0 1 42.7 45.26 66.72 66.72 0 0 1-24.93 54.68z"/>
</svg>
